assets/cold.cube
TITLE "cold documentary"
LUT_3D_SIZE 5
DOMAIN_MIN 0 0 0
DOMAIN_MAX 1 1 1
0.000000 0.009423 0.058441
0.141986 0.017752 0.061998
0.357368 0.026268 0.065860
0.604917 0.034976 0.070029
0.826272 0.043878 0.074511
0.007602 0.215208 0.071625
0.193546 0.226044 0.076222
0.418508 0.237098 0.081138
0.664615 0.248373 0.086378
0.875660 0.259873 0.091947
0.050815 0.469352 0.088367
0.246194 0.482863 0.094057
0.480423 0.496622 0.100085
0.720264 0.510567 0.106457
0.921310 0.524539 0.113178
0.095225 0.734609 0.108863
0.299726 0.746594 0.115713
0.541848 0.758575 0.122922
0.772064 0.770550 0.130497
0.963424 0.782513 0.138446
0.140630 0.953620 0.133348
0.353942 0.963520 0.141435
0.599539 0.973385 0.149906
0.820212 0.983212 0.158769
1.000000 0.992996 0.168033
0.000000 0.012231 0.241040
0.147135 0.020623 0.245442
0.363499 0.029204 0.250208
0.611134 0.037977 0.255342
0.831433 0.046946 0.260847
0.011904 0.218863 0.257303
0.198815 0.229773 0.262945
0.424727 0.240902 0.268966
0.670413 0.252253 0.275372
0.880434 0.263831 0.282166
0.055248 0.473913 0.277800
0.251561 0.487508 0.284738
0.486708 0.501351 0.292073
0.725664 0.515310 0.299812
0.925719 0.529288 0.307962
0.099767 0.738679 0.302732
0.305171 0.750664 0.311032
0.547848 0.762643 0.319752
0.777087 0.774614 0.328899
0.967487 0.786573 0.338480
0.145262 0.956986 0.332336
0.359446 0.966875 0.342077
0.605151 0.976727 0.352264
0.824877 0.986539 0.362903
1.000000 0.996308 0.374005
0.000000 0.015060 0.457627
0.152298 0.023516 0.462914
0.369639 0.032162 0.468624
0.617307 0.041001 0.474762
0.836555 0.050037 0.481331
0.016220 0.222544 0.477103
0.204094 0.233528 0.483831
0.430953 0.244732 0.490998
0.676170 0.256160 0.498608
0.885171 0.267814 0.506642
0.059692 0.478502 0.501489
0.256938 0.492181 0.509660
0.493000 0.506089 0.518201
0.731026 0.520055 0.527105
0.930092 0.534038 0.536365
0.104319 0.742749 0.530435
0.310624 0.754733 0.539823
0.553809 0.766709 0.549559
0.782073 0.778677 0.559633
0.971515 0.790630 0.570040
0.149901 0.960348 0.563384
0.364954 0.970225 0.573910
0.610724 0.980064 0.584756
0.829507 0.989862 0.595916
1.000000 0.999615 0.607379
0.000000 0.017910 0.685329
0.157473 0.026430 0.690230
0.375790 0.035142 0.695475
0.623437 0.044047 0.701060
0.841636 0.053150 0.706980
0.020550 0.226250 0.703177
0.209385 0.237308 0.709218
0.437187 0.248588 0.715588
0.681887 0.260092 0.722281
0.889870 0.271824 0.729291
0.064148 0.483119 0.724797
0.262322 0.496883 0.731921
0.499296 0.510830 0.739355
0.736349 0.524802 0.747091
0.934429 0.538791 0.755123
0.108880 0.746819 0.749981
0.316082 0.758801 0.758120
0.559729 0.770775 0.766544
0.787022 0.782738 0.775248
0.975510 0.794686 0.784222
0.154548 0.963706 0.778484
0.370467 0.973571 0.787555
0.616259 0.983396 0.796887
0.834102 0.993179 0.806470
1.000000 1.000000 0.816296
0.000000 0.020783 0.880187
0.162661 0.029367 0.884404
0.381950 0.038144 0.888905
0.629524 0.047116 0.893687
0.846678 0.056287 0.898745
0.024894 0.229980 0.895497
0.214686 0.241114 0.900653
0.443428 0.252469 0.906079
0.687562 0.264051 0.911767
0.894532 0.275861 0.917712
0.068615 0.487766 0.913902
0.267715 0.501613 0.919939
0.505579 0.515573 0.926226
0.741633 0.529551 0.932754
0.938731 0.543545 0.939518
0.113451 0.750889 0.935190
0.321547 0.762868 0.942038
0.565610 0.774839 0.949111
0.791935 0.786797 0.956403
0.979472 0.798740 0.963905
0.159203 0.967060 0.959110
0.375985 0.976912 0.966687
0.621756 0.986723 0.974463
0.838662 0.996491 0.982429
1.000000 1.000000 0.990577
