assets/cold.cube
TITLE "cold documentary"
LUT_3D_SIZE 9
DOMAIN_MIN 0 0 0
DOMAIN_MAX 1 1 1
0.000000 0.009423 0.058441
0.048986 0.013564 0.060182
0.141986 0.017752 0.061998
0.244783 0.021986 0.063891
0.357368 0.026268 0.065860
0.479731 0.030598 0.067906
0.604917 0.034976 0.070029
0.720510 0.039402 0.072231
0.826272 0.043878 0.074511
0.000000 0.106319 0.064599
0.072170 0.111075 0.066596
0.167617 0.115881 0.068670
0.272839 0.120737 0.070822
0.387828 0.125645 0.073052
0.512482 0.130605 0.075361
0.635285 0.135616 0.077750
0.748270 0.140679 0.080219
0.851446 0.145796 0.082768
0.007602 0.215208 0.071625
0.095692 0.220599 0.073884
0.193546 0.226044 0.076222
0.301154 0.231543 0.078639
0.418508 0.237098 0.081138
0.544401 0.242708 0.083717
0.664615 0.248373 0.086378
0.775032 0.254095 0.089121
0.875660 0.259873 0.091947
0.029046 0.336186 0.079540
0.119525 0.342233 0.082067
0.219747 0.348338 0.084676
0.329702 0.354502 0.087367
0.449381 0.360724 0.090140
0.575269 0.367005 0.092997
0.692933 0.373346 0.095937
0.800820 0.379747 0.098963
0.898940 0.386209 0.102074
0.050815 0.469352 0.088367
0.143644 0.476077 0.091170
0.246194 0.482863 0.094057
0.358457 0.489711 0.097029
0.480423 0.496622 0.100085
0.605111 0.503588 0.103228
0.720264 0.510567 0.106457
0.825660 0.517550 0.109773
0.921310 0.524539 0.113178
0.072883 0.607500 0.098132
0.168022 0.613980 0.101219
0.272862 0.620464 0.104393
0.387393 0.626951 0.107654
0.511528 0.633440 0.111002
0.633952 0.639931 0.114439
0.746632 0.646424 0.117966
0.849578 0.652918 0.121583
0.942797 0.659413 0.125291
0.095225 0.734609 0.108863
0.192636 0.740602 0.112243
0.299726 0.746594 0.115713
0.416487 0.752585 0.119272
0.541848 0.758575 0.122922
0.661817 0.764564 0.126663
0.772064 0.770550 0.130497
0.872597 0.776533 0.134425
0.963424 0.782513 0.138446
0.117816 0.850015 0.120590
0.217459 0.855499 0.124274
0.326761 0.860979 0.128049
0.445713 0.866454 0.131916
0.571177 0.871924 0.135878
0.688731 0.877388 0.139934
0.796582 0.882845 0.144086
0.894741 0.888296 0.148335
0.983216 0.893740 0.152681
0.140630 0.953620 0.133348
0.242467 0.958574 0.137344
0.353942 0.963520 0.141435
0.475046 0.968457 0.145622
0.599539 0.973385 0.149906
0.714716 0.978304 0.154288
0.820212 0.983212 0.158769
0.916035 0.988109 0.163351
1.000000 0.992996 0.168033
0.000000 0.010824 0.145493
0.051310 0.014981 0.147439
0.144559 0.019185 0.149468
0.247603 0.023435 0.151581
0.360432 0.027733 0.153777
0.483037 0.032079 0.156058
0.608031 0.036474 0.158423
0.723359 0.040917 0.160875
0.828858 0.045409 0.163412
0.000000 0.107929 0.152370
0.074530 0.112701 0.154597
0.170221 0.117524 0.156909
0.275686 0.122398 0.159306
0.390916 0.127324 0.161789
0.515752 0.132301 0.164358
0.638293 0.137330 0.167014
0.751017 0.142411 0.169757
0.853933 0.147546 0.172589
0.009751 0.217032 0.160200
0.098084 0.222442 0.162714
0.196179 0.227905 0.165314
0.304026 0.233423 0.168002
0.421616 0.238997 0.170778
0.547565 0.244625 0.173642
0.667519 0.250310 0.176596
0.777679 0.256051 0.179639
0.878052 0.261849 0.182773
0.031229 0.338233 0.169003
0.121947 0.344300 0.171810
0.222406 0.350425 0.174707
0.332596 0.356608 0.177693
0.452508 0.362851 0.180769
0.578328 0.369152 0.183936
0.695736 0.375513 0.187195
0.803370 0.381935 0.190545
0.901239 0.388417 0.193989
0.053030 0.471629 0.178802
0.146094 0.478374 0.181912
0.248877 0.485182 0.185112
0.361370 0.492051 0.188404
0.483565 0.498983 0.191788
0.608068 0.505958 0.195266
0.722969 0.512938 0.198839
0.828116 0.519923 0.202506
0.923519 0.526913 0.206269
0.075127 0.609700 0.189625
0.170497 0.616182 0.193044
0.275566 0.622666 0.196556
0.390324 0.629154 0.200163
0.514635 0.635644 0.203865
0.636809 0.642136 0.207663
0.749242 0.648629 0.211558
0.851942 0.655123 0.215551
0.944918 0.661618 0.219643
0.097495 0.736644 0.201499
0.195133 0.742637 0.205236
0.302448 0.748629 0.209070
0.419432 0.754620 0.213000
0.544853 0.760609 0.217029
0.664577 0.766597 0.221157
0.774580 0.772582 0.225385
0.874871 0.778564 0.229714
0.965460 0.784543 0.234145
0.120109 0.851878 0.214456
0.219975 0.857361 0.218520
0.329499 0.862839 0.222685
0.448669 0.868312 0.226949
0.574083 0.873780 0.231315
0.691395 0.879242 0.235784
0.799008 0.884697 0.240355
0.896929 0.890146 0.245031
0.985168 0.895588 0.249813
0.142945 0.955303 0.228527
0.245001 0.960255 0.232930
0.356694 0.965198 0.237436
0.478013 0.970132 0.242046
0.602350 0.975057 0.246760
0.717289 0.979972 0.251580
0.822549 0.984876 0.256506
0.918139 0.989770 0.261541
1.000000 0.994652 0.266684
0.000000 0.012231 0.241040
0.053638 0.016403 0.243196
0.147135 0.020623 0.245442
0.250425 0.024890 0.247780
0.363499 0.029204 0.250208
0.486346 0.033566 0.252729
0.611134 0.037977 0.255342
0.726197 0.042437 0.258048
0.831433 0.046946 0.260847
0.000000 0.109544 0.248653
0.076893 0.114334 0.251115
0.172829 0.119174 0.253669
0.278536 0.124065 0.256316
0.394005 0.129008 0.259056
0.519012 0.134003 0.261890
0.641290 0.139049 0.264818
0.753753 0.144149 0.267842
0.856411 0.149301 0.270961
0.011904 0.218863 0.257303
0.100480 0.224291 0.260077
0.198815 0.229773 0.262945
0.306900 0.235310 0.265908
0.424727 0.240902 0.268966
0.550717 0.246550 0.272121
0.670413 0.252253 0.275372
0.780316 0.258014 0.278720
0.880434 0.263831 0.282166
0.033416 0.340287 0.267011
0.124373 0.346374 0.270104
0.225067 0.352518 0.273293
0.335492 0.358722 0.276579
0.455636 0.364984 0.279963
0.581376 0.371306 0.283446
0.698530 0.377687 0.287027
0.805911 0.384129 0.290708
0.903529 0.390632 0.294490
0.055248 0.473913 0.277800
0.148546 0.480679 0.281220
0.251561 0.487508 0.284738
0.364285 0.494398 0.288356
0.486708 0.501351 0.292073
0.611014 0.508328 0.295892
0.725664 0.515310 0.299812
0.830563 0.522296 0.303835
0.925719 0.529288 0.307962
0.077373 0.611901 0.289697
0.172974 0.618384 0.293452
0.278271 0.624869 0.297308
0.393256 0.631358 0.301265
0.517731 0.637848 0.305326
0.639656 0.644341 0.309490
0.751842 0.650834 0.313759
0.854297 0.657329 0.318133
0.947030 0.663824 0.322614
0.099767 0.738679 0.302732
0.197631 0.744672 0.306830
0.305171 0.750664 0.311032
0.422378 0.756654 0.315339
0.547848 0.762643 0.319752
0.667327 0.768630 0.324271
0.777087 0.774614 0.328899
0.877137 0.780595 0.333634
0.967487 0.786573 0.338480
0.122405 0.853740 0.316933
0.222494 0.859222 0.321385
0.332238 0.864698 0.325943
0.451627 0.870170 0.330610
0.576980 0.875636 0.335386
0.694051 0.881095 0.340271
0.801424 0.886549 0.345268
0.899108 0.891995 0.350376
0.987113 0.897434 0.355597
0.145262 0.956986 0.332336
0.247537 0.961935 0.337152
0.359446 0.966875 0.342077
0.480980 0.971806 0.347114
0.605151 0.976727 0.352264
0.719852 0.981638 0.357526
0.824877 0.986539 0.362903
0.920234 0.991429 0.368396
1.000000 0.996308 0.374005
0.000000 0.013643 0.345084
0.055970 0.017831 0.347455
0.149715 0.022067 0.349924
0.253251 0.026349 0.352491
0.366568 0.030680 0.355156
0.489657 0.035059 0.357922
0.614226 0.039486 0.360787
0.729024 0.043963 0.363753
0.833999 0.048488 0.366820
0.000000 0.111165 0.353450
0.079259 0.115972 0.356152
0.175439 0.120829 0.358953
0.281388 0.125738 0.361855
0.397098 0.130698 0.364858
0.522261 0.135711 0.367961
0.644276 0.140775 0.371167
0.756479 0.145893 0.374475
0.858879 0.151063 0.377887
0.014060 0.220701 0.362936
0.102878 0.226147 0.365976
0.201453 0.231647 0.369117
0.309776 0.237203 0.372360
0.427839 0.242814 0.375706
0.553859 0.248480 0.379155
0.673297 0.254203 0.382708
0.782943 0.259983 0.386367
0.882808 0.265819 0.390131
0.035606 0.342348 0.373566
0.126801 0.348454 0.376949
0.227732 0.354618 0.380437
0.338390 0.360842 0.384028
0.458766 0.367124 0.387725
0.584414 0.373466 0.391528
0.701313 0.379868 0.395437
0.808442 0.386331 0.399454
0.905809 0.392854 0.403578
0.057468 0.476204 0.385362
0.151001 0.482991 0.389097
0.254248 0.489841 0.392938
0.367202 0.496753 0.396887
0.489853 0.503720 0.400943
0.613950 0.510698 0.405107
0.728350 0.517682 0.409381
0.833000 0.524670 0.413765
0.927910 0.531663 0.418259
0.079622 0.614102 0.398351
0.175453 0.620586 0.402446
0.280978 0.627073 0.406650
0.396189 0.633562 0.410964
0.520817 0.640053 0.415388
0.642493 0.646546 0.419923
0.754432 0.653040 0.424571
0.856643 0.659535 0.429331
0.949134 0.666030 0.434206
0.102041 0.740714 0.412562
0.200132 0.746707 0.417026
0.307897 0.752698 0.421602
0.425325 0.758688 0.426291
0.550833 0.764676 0.431093
0.670067 0.770662 0.436009
0.779585 0.776645 0.441041
0.879394 0.782625 0.446188
0.969505 0.788602 0.451453
0.124702 0.855602 0.428026
0.225014 0.861082 0.432869
0.334978 0.866557 0.437827
0.454586 0.872027 0.442901
0.579867 0.877490 0.448091
0.696697 0.882948 0.453399
0.803831 0.888399 0.458825
0.901279 0.893843 0.464371
0.989049 0.899279 0.470037
0.147580 0.958667 0.444777
0.250074 0.963613 0.450010
0.362200 0.968550 0.455361
0.483948 0.973478 0.460830
0.607942 0.978396 0.466420
0.722407 0.983304 0.472130
0.827196 0.988201 0.477963
0.922320 0.993087 0.483919
1.000000 0.997962 0.489999
0.000000 0.015060 0.457627
0.058305 0.019264 0.460218
0.152298 0.023516 0.462914
0.256079 0.027815 0.465716
0.369639 0.032162 0.468624
0.492970 0.036557 0.471639
0.617307 0.041001 0.474762
0.731842 0.045494 0.477992
0.836555 0.050037 0.481331
0.000000 0.112792 0.466762
0.081629 0.117616 0.469709
0.178052 0.122491 0.472764
0.284243 0.127417 0.475925
0.400192 0.132395 0.479195
0.525499 0.137425 0.482574
0.647252 0.142507 0.486062
0.759196 0.147643 0.489660
0.861338 0.152831 0.493369
0.016220 0.222544 0.477103
0.105280 0.228009 0.480413
0.204094 0.233528 0.483831
0.312655 0.239102 0.487359
0.430953 0.244732 0.490998
0.556991 0.250418 0.494747
0.676170 0.256160 0.498608
0.785561 0.261958 0.502578
0.885171 0.267814 0.506642
0.037799 0.344415 0.488671
0.129231 0.350541 0.492350
0.230398 0.356725 0.496140
0.341290 0.362969 0.500042
0.461897 0.369271 0.504047
0.587441 0.375634 0.508145
0.704086 0.382056 0.512336
0.810963 0.388539 0.516619
0.908081 0.395083 0.520993
0.059692 0.478502 0.501489
0.153458 0.485310 0.505528
0.256938 0.492181 0.509660
0.370121 0.499114 0.513885
0.493000 0.506089 0.518201
0.616876 0.513069 0.522608
0.731026 0.520055 0.527105
0.835428 0.527044 0.531691
0.930092 0.534038 0.536365
0.081873 0.616304 0.515446
0.177934 0.622788 0.519795
0.283688 0.629276 0.524235
0.399124 0.635766 0.528764
0.523892 0.642258 0.533382
0.645320 0.648751 0.538088
0.757013 0.655246 0.542882
0.858980 0.661741 0.547761
0.951229 0.668236 0.552726
0.104319 0.742749 0.530435
0.202635 0.748742 0.535085
0.310624 0.754733 0.539823
0.428274 0.760722 0.544648
0.553809 0.766709 0.549559
0.672798 0.772694 0.554554
0.782073 0.778677 0.559633
0.881642 0.784655 0.564796
0.971515 0.790630 0.570040
0.127003 0.857464 0.546426
0.227536 0.862942 0.551367
0.337721 0.868415 0.556393
0.457546 0.873883 0.561503
0.582745 0.879345 0.566696
0.699334 0.884800 0.571970
0.806230 0.890248 0.577324
0.903441 0.895690 0.582758
0.990976 0.901123 0.588271
0.149901 0.960348 0.563384
0.252613 0.965291 0.568606
0.364954 0.970225 0.573910
0.486916 0.975149 0.579293
0.610724 0.980064 0.584756
0.724952 0.984968 0.590298
0.829507 0.989862 0.595916
0.924398 0.994744 0.601610
1.000000 0.999615 0.607379
0.000000 0.016482 0.575174
0.060644 0.020703 0.577741
0.154884 0.024970 0.580401
0.258910 0.029286 0.583156
0.372714 0.033649 0.586003
0.496285 0.038061 0.588943
0.620377 0.042521 0.591975
0.734649 0.047031 0.595098
0.839100 0.051591 0.598312
0.000000 0.114424 0.584182
0.084002 0.119265 0.587063
0.180669 0.124158 0.590036
0.287100 0.129101 0.593101
0.403288 0.134097 0.596258
0.528726 0.139145 0.599504
0.650218 0.144245 0.602841
0.761902 0.149399 0.606267
0.863786 0.154606 0.609781
0.018384 0.224394 0.594240
0.107685 0.229877 0.597429
0.206738 0.235415 0.600709
0.315536 0.241008 0.604078
0.434069 0.246657 0.607536
0.560112 0.252361 0.611082
0.679034 0.258123 0.614716
0.788169 0.263941 0.618437
0.887525 0.269816 0.622244
0.039995 0.346489 0.605327
0.131665 0.352635 0.608817
0.233067 0.358839 0.612395
0.344192 0.365102 0.616061
0.465030 0.371425 0.619813
0.590459 0.377808 0.623651
0.706850 0.384251 0.627575
0.813475 0.390755 0.631582
0.910343 0.397320 0.635673
0.061918 0.480807 0.617417
0.155918 0.487637 0.621201
0.259629 0.494529 0.625070
0.373042 0.501482 0.629024
0.496147 0.508459 0.633062
0.619792 0.515441 0.637183
0.733692 0.522428 0.641387
0.837847 0.529419 0.645672
0.932265 0.536414 0.650038
0.084128 0.618506 0.630484
0.180418 0.624991 0.634553
0.286399 0.631480 0.638704
0.402060 0.637971 0.642938
0.526957 0.644463 0.647252
0.648138 0.650957 0.651648
0.759585 0.657451 0.656122
0.861307 0.663946 0.660675
0.953315 0.670441 0.665306
0.106598 0.744784 0.644499
0.205141 0.750776 0.648843
0.313352 0.756767 0.653268
0.431224 0.762756 0.657771
0.556774 0.768742 0.662352
0.675519 0.774726 0.667011
0.784552 0.780707 0.671747
0.883882 0.786685 0.676557
0.973517 0.792659 0.681442
0.129305 0.859325 0.659430
0.230060 0.864801 0.664040
0.340464 0.870273 0.668727
0.460507 0.875738 0.673489
0.585612 0.881198 0.678327
0.701961 0.886651 0.683239
0.808619 0.892097 0.688224
0.905594 0.897536 0.693281
0.992896 0.902967 0.698409
0.152223 0.962028 0.675242
0.255153 0.966967 0.680107
0.367710 0.971898 0.685046
0.489886 0.976819 0.690057
0.613496 0.981731 0.695140
0.727488 0.986631 0.700293
0.831809 0.991521 0.705516
0.926468 0.996400 0.710807
1.000000 1.000000 0.716166
0.000000 0.017910 0.685329
0.062987 0.022147 0.687736
0.157473 0.026430 0.690230
0.261744 0.030762 0.692809
0.375790 0.035142 0.695475
0.499601 0.039570 0.698225
0.623437 0.044047 0.701060
0.737445 0.048574 0.703978
0.841636 0.053150 0.706980
0.000000 0.116063 0.693770
0.086379 0.120921 0.696466
0.183288 0.125831 0.699247
0.289960 0.130792 0.702113
0.406386 0.135805 0.705062
0.531942 0.140871 0.708094
0.653173 0.145989 0.711208
0.764598 0.151161 0.714404
0.866225 0.156386 0.717681
0.020550 0.226250 0.703177
0.110092 0.231751 0.706156
0.209385 0.237308 0.709218
0.318419 0.242920 0.712362
0.437187 0.248588 0.715588
0.563222 0.254311 0.718894
0.681887 0.260092 0.722281
0.790766 0.265930 0.725747
0.889870 0.271824 0.729291
0.042195 0.348569 0.713527
0.134102 0.354735 0.716782
0.235738 0.360959 0.720118
0.347096 0.367243 0.723534
0.468165 0.373586 0.727028
0.593465 0.379989 0.730601
0.709603 0.386453 0.734252
0.815978 0.392978 0.737979
0.912597 0.399563 0.741782
0.064148 0.483119 0.724797
0.158381 0.489970 0.728320
0.262322 0.496883 0.731921
0.375964 0.503851 0.735600
0.499296 0.510830 0.739355
0.622698 0.517813 0.743185
0.736349 0.524802 0.747091
0.840256 0.531794 0.751071
0.934429 0.538791 0.755123
0.086385 0.620708 0.736958
0.182904 0.627195 0.740741
0.289112 0.633684 0.744599
0.404998 0.640175 0.748531
0.530012 0.646668 0.752538
0.650945 0.653162 0.756617
0.762147 0.659657 0.760768
0.863626 0.666152 0.764990
0.955392 0.672647 0.769282
0.108880 0.746819 0.749981
0.207648 0.752811 0.754014
0.316082 0.758801 0.758120
0.434175 0.764789 0.762297
0.559729 0.770775 0.766544
0.678231 0.776758 0.770862
0.787022 0.782738 0.775248
0.886112 0.788714 0.779702
0.975510 0.794686 0.784222
0.131609 0.861185 0.763835
0.232586 0.866660 0.768108
0.343209 0.872129 0.772451
0.463469 0.877593 0.776861
0.588470 0.883051 0.781340
0.704579 0.888501 0.785885
0.810999 0.893945 0.790495
0.907739 0.899381 0.795169
0.994807 0.904809 0.799907
0.154548 0.963706 0.778484
0.257695 0.968643 0.782987
0.370467 0.973571 0.787555
0.492856 0.978488 0.792189
0.616259 0.983396 0.796887
0.730015 0.988293 0.801648
0.834102 0.993179 0.806470
0.928530 0.998054 0.811353
1.000000 1.000000 0.816296
0.000000 0.019344 0.787001
0.065333 0.023596 0.789243
0.160066 0.027896 0.791564
0.264581 0.032244 0.793965
0.378869 0.036640 0.796443
0.502915 0.041085 0.798999
0.626486 0.045579 0.801631
0.740232 0.050122 0.804341
0.844162 0.054716 0.807125
0.001376 0.117707 0.794858
0.088758 0.122583 0.797364
0.185910 0.127510 0.799948
0.292823 0.132489 0.802609
0.409487 0.137520 0.805346
0.535148 0.142603 0.808158
0.656118 0.147740 0.811045
0.767284 0.152930 0.814007
0.868655 0.158173 0.817041
0.022721 0.228112 0.803596
0.112503 0.233632 0.806361
0.212034 0.239208 0.809200
0.321305 0.244838 0.812115
0.440306 0.250525 0.815103
0.566322 0.256268 0.818165
0.684729 0.262068 0.821299
0.793355 0.267925 0.824504
0.892206 0.273840 0.827781
0.044397 0.350657 0.813194
0.136541 0.356842 0.816209
0.238412 0.363087 0.819297
0.350002 0.369390 0.822457
0.471301 0.375754 0.825689
0.596462 0.382178 0.828992
0.712347 0.388662 0.832365
0.818470 0.395207 0.835807
0.914841 0.401814 0.839317
0.066380 0.485439 0.823626
0.160846 0.492311 0.826884
0.265018 0.499245 0.830212
0.378888 0.506220 0.833610
0.502443 0.513201 0.837077
0.625594 0.520186 0.840612
0.738995 0.527176 0.844214
0.842656 0.534170 0.847883
0.936584 0.541167 0.851617
0.088644 0.622911 0.834864
0.185393 0.629398 0.838356
0.291827 0.635888 0.841916
0.407938 0.642380 0.845542
0.533057 0.648873 0.849235
0.653743 0.655368 0.852993
0.764699 0.661863 0.856815
0.865936 0.668358 0.860701
0.957461 0.674853 0.864649
0.111164 0.748854 0.846879
0.210157 0.754845 0.850596
0.318814 0.760835 0.854377
0.437127 0.766822 0.858223
0.562674 0.772807 0.862131
0.680933 0.778789 0.866102
0.789483 0.784768 0.870134
0.888334 0.790743 0.874226
0.977495 0.796714 0.878378
0.133916 0.863045 0.859639
0.235113 0.868518 0.863570
0.345955 0.873986 0.867563
0.466432 0.879447 0.871617
0.591318 0.884902 0.875731
0.707188 0.890351 0.879903
0.813371 0.895792 0.884134
0.909876 0.901226 0.888421
0.996711 0.906651 0.892764
0.156874 0.965384 0.873108
0.260238 0.970317 0.877243
0.373226 0.975242 0.881437
0.495827 0.980156 0.885688
0.619012 0.985060 0.889995
0.732533 0.989954 0.894358
0.836387 0.994836 0.898775
0.930583 0.999706 0.903245
1.000000 1.000000 0.907767
0.000000 0.020783 0.880187
0.067682 0.025051 0.882259
0.162661 0.029367 0.884404
0.267420 0.033731 0.886619
0.381950 0.038144 0.888905
0.506218 0.042606 0.891262
0.629524 0.047116 0.893687
0.743008 0.051677 0.896182
0.846678 0.056287 0.898745
0.003515 0.119357 0.887443
0.091141 0.124250 0.889755
0.188535 0.129195 0.892137
0.295688 0.134191 0.894588
0.412589 0.139240 0.897107
0.538342 0.144342 0.899695
0.659052 0.149496 0.902350
0.769960 0.154704 0.905071
0.871074 0.159966 0.907859
0.024894 0.229980 0.895497
0.114917 0.235519 0.898041
0.214686 0.241114 0.900653
0.324193 0.246763 0.903333
0.443428 0.252469 0.906079
0.569411 0.258231 0.908890
0.687562 0.264051 0.911767
0.795933 0.269927 0.914708
0.894532 0.275861 0.917712
0.046603 0.352751 0.904325
0.138983 0.358956 0.907095
0.241088 0.365221 0.909930
0.352910 0.371545 0.912830
0.474439 0.377929 0.915794
0.599448 0.384373 0.918821
0.715081 0.390878 0.921911
0.820954 0.397444 0.925063
0.917076 0.404072 0.928275
0.068615 0.487766 0.913902
0.163313 0.494659 0.916889
0.267715 0.501613 0.919939
0.381813 0.508590 0.923052
0.505579 0.515573 0.926226
0.628480 0.522559 0.929460
0.741633 0.529551 0.932754
0.845047 0.536546 0.936107
0.938731 0.543545 0.939518
0.090907 0.625113 0.924200
0.187883 0.631602 0.927396
0.294544 0.638093 0.930652
0.410879 0.644585 0.933968
0.536092 0.651079 0.937342
0.656531 0.657573 0.940774
0.767243 0.664069 0.944263
0.868237 0.670564 0.947807
0.959522 0.677058 0.951407
0.113451 0.750889 0.935190
0.212668 0.756879 0.938585
0.321547 0.762868 0.942038
0.440081 0.768855 0.945547
0.565610 0.774839 0.949111
0.683625 0.780820 0.952731
0.791935 0.786797 0.956403
0.890547 0.792771 0.960128
0.979472 0.798740 0.963905
0.136225 0.864904 0.946838
0.237643 0.870375 0.950423
0.348703 0.875841 0.954061
0.469395 0.881301 0.957753
0.594157 0.886754 0.961497
0.709788 0.892200 0.965293
0.815734 0.897638 0.969138
0.912003 0.903069 0.973033
0.998606 0.908491 0.976975
0.159203 0.967060 0.959110
0.262783 0.971991 0.962873
0.375985 0.976912 0.966687
0.498799 0.981823 0.970551
0.621756 0.986723 0.974463
0.735042 0.991613 0.978423
0.838662 0.996491 0.982429
0.932628 1.000000 0.986481
1.000000 1.000000 0.990577
