assets/cold.cube
TITLE "cold documentary"
LUT_3D_SIZE 17
DOMAIN_MIN 0 0 0
DOMAIN_MAX 1 1 1
0.000000 0.009423 0.058441
0.006162 0.011488 0.059302
0.048986 0.013564 0.060182
0.094261 0.015652 0.061081
0.141986 0.017752 0.061998
0.192160 0.019863 0.062935
0.244783 0.021986 0.063891
0.299852 0.024121 0.064866
0.357368 0.026268 0.065860
0.417327 0.028427 0.066873
0.479731 0.030598 0.067906
0.543432 0.032781 0.068958
0.604917 0.034976 0.070029
0.663943 0.037183 0.071120
0.720510 0.039402 0.072231
0.774620 0.041634 0.073361
0.826272 0.043878 0.074511
0.000000 0.056378 0.061413
0.017092 0.058595 0.062337
0.060534 0.060824 0.063281
0.106424 0.063065 0.064244
0.154762 0.065318 0.065225
0.205547 0.067583 0.066227
0.258777 0.069861 0.067247
0.314451 0.072151 0.068287
0.372569 0.074453 0.069346
0.433128 0.076768 0.070424
0.496128 0.079095 0.071522
0.559405 0.081435 0.072640
0.620233 0.083787 0.073778
0.678603 0.086152 0.074935
0.734517 0.088530 0.076112
0.787976 0.090920 0.077309
0.838981 0.093323 0.078526
0.000000 0.106319 0.064599
0.028115 0.108691 0.065588
0.072170 0.111075 0.066596
0.118671 0.113471 0.067623
0.167617 0.115881 0.068670
0.219006 0.118303 0.069736
0.272839 0.120737 0.070822
0.329113 0.123185 0.071927
0.387828 0.125645 0.073052
0.448982 0.128118 0.074197
0.512482 0.130605 0.075361
0.575111 0.133104 0.076546
0.635285 0.135616 0.077750
0.693005 0.138141 0.078974
0.748270 0.140679 0.080219
0.801084 0.143231 0.081483
0.851446 0.145796 0.082768
0.000000 0.159258 0.068002
0.039227 0.161787 0.069056
0.083890 0.164329 0.070129
0.130997 0.166884 0.071222
0.180546 0.169452 0.072334
0.232536 0.172033 0.073467
0.286966 0.174627 0.074618
0.343835 0.177235 0.075790
0.403142 0.179856 0.076982
0.464886 0.182490 0.078193
0.528574 0.185138 0.079425
0.590553 0.187799 0.080677
0.650078 0.190474 0.081949
0.707152 0.193162 0.083241
0.761774 0.195864 0.084554
0.813947 0.198579 0.085887
0.863671 0.201309 0.087241
0.007602 0.215208 0.071625
0.050426 0.217896 0.072744
0.095692 0.220599 0.073884
0.143399 0.223314 0.075043
0.193546 0.226044 0.076222
0.246131 0.228787 0.077421
0.301154 0.231543 0.078639
0.358613 0.234314 0.079878
0.418508 0.237098 0.081138
0.480837 0.239896 0.082417
0.544401 0.242708 0.083717
0.605733 0.245533 0.085037
0.664615 0.248373 0.086378
0.721048 0.251227 0.087739
0.775032 0.254095 0.089121
0.826569 0.256977 0.090523
0.875660 0.259873 0.091947
0.018282 0.274180 0.075470
0.061707 0.277031 0.076656
0.107571 0.279896 0.077862
0.155874 0.282775 0.079088
0.206614 0.285669 0.080334
0.259790 0.288576 0.081601
0.315400 0.291497 0.082888
0.373445 0.294433 0.084195
0.433922 0.297383 0.085523
0.496831 0.300347 0.086871
0.559965 0.303326 0.088239
0.620656 0.306319 0.089629
0.678899 0.309327 0.091039
0.734695 0.312349 0.092470
0.788046 0.315385 0.093922
0.838952 0.318437 0.095396
0.887415 0.321503 0.096890
0.029046 0.336186 0.079540
0.073067 0.339203 0.080793
0.119525 0.342233 0.082067
0.168419 0.345279 0.083361
0.219747 0.348338 0.084676
0.273508 0.351413 0.086011
0.329702 0.354502 0.087367
0.388327 0.357606 0.088743
0.449381 0.360724 0.090140
0.512768 0.363857 0.091558
0.575269 0.367005 0.092997
0.635324 0.370168 0.094456
0.692933 0.373346 0.095937
0.748098 0.376539 0.097439
0.800820 0.379747 0.098963
0.851100 0.382970 0.100507
0.898940 0.386209 0.102074
0.039892 0.401240 0.083838
0.084504 0.404424 0.085160
0.131550 0.407623 0.086502
0.181030 0.410837 0.087865
0.232941 0.414066 0.089249
0.287283 0.417310 0.090654
0.344055 0.420569 0.092079
0.403255 0.423843 0.093526
0.464883 0.427133 0.094993
0.528450 0.430438 0.096482
0.590317 0.433758 0.097991
0.649740 0.437094 0.099523
0.706720 0.440444 0.101075
0.761259 0.443811 0.102649
0.813357 0.447193 0.104245
0.863016 0.450590 0.105862
0.910237 0.454004 0.107502
0.050815 0.469352 0.088367
0.096014 0.472707 0.089758
0.143644 0.476077 0.091170
0.193704 0.479462 0.092603
0.246194 0.482863 0.094057
0.301112 0.486279 0.095532
0.358457 0.489711 0.097029
0.418228 0.493159 0.098546
0.480423 0.496622 0.100085
0.543874 0.500101 0.101646
0.605111 0.503588 0.103228
0.663907 0.507077 0.104831
0.720264 0.510567 0.106457
0.774181 0.514058 0.108104
0.825660 0.517550 0.109773
0.874703 0.521044 0.111464
0.921310 0.524539 0.113178
0.061813 0.539588 0.093130
0.107593 0.542945 0.094592
0.155802 0.546304 0.096075
0.206439 0.549664 0.097579
0.259502 0.553025 0.099104
0.314991 0.556388 0.100651
0.372904 0.559752 0.102219
0.433240 0.563117 0.103809
0.495999 0.566482 0.105420
0.559042 0.569849 0.107054
0.619655 0.573217 0.108709
0.677830 0.576586 0.110386
0.733567 0.579956 0.112086
0.786867 0.583326 0.113807
0.837733 0.586697 0.115551
0.886164 0.590069 0.117317
0.932163 0.593441 0.119106
0.072883 0.607500 0.098132
0.119240 0.610739 0.099665
0.168022 0.613980 0.101219
0.219230 0.617222 0.102795
0.272862 0.620464 0.104393
0.328917 0.623707 0.106013
0.387393 0.626951 0.107654
0.448291 0.630195 0.109317
0.511528 0.633440 0.111002
0.573959 0.636685 0.112710
0.633952 0.639931 0.114439
0.691510 0.643177 0.116191
0.746632 0.646424 0.117966
0.799321 0.649671 0.119763
0.849578 0.652918 0.121583
0.897403 0.656165 0.123425
0.942797 0.659413 0.125291
0.084021 0.672511 0.103375
0.130950 0.675630 0.104980
0.180301 0.678750 0.106608
0.232076 0.681870 0.108257
0.286271 0.684991 0.109928
0.342887 0.688112 0.111621
0.401922 0.691233 0.113337
0.463375 0.694354 0.115075
0.526813 0.697475 0.116835
0.588626 0.700596 0.118618
0.648005 0.703717 0.120423
0.704951 0.706838 0.122251
0.759464 0.709959 0.124102
0.811546 0.713080 0.125976
0.861198 0.716201 0.127872
0.908421 0.719321 0.129793
0.953217 0.722441 0.131736
0.095225 0.734609 0.108863
0.142720 0.737605 0.110542
0.192636 0.740602 0.112243
0.244971 0.743598 0.113967
0.299726 0.746594 0.115713
0.356898 0.749590 0.117481
0.416487 0.752585 0.119272
0.478491 0.755581 0.121086
0.541848 0.758575 0.122922
0.603048 0.761570 0.124781
0.661817 0.764564 0.126663
0.718155 0.767557 0.128569
0.772064 0.770550 0.130497
0.823544 0.773542 0.132449
0.872597 0.776533 0.134425
0.919223 0.779523 0.136424
0.963424 0.782513 0.138446
0.106491 0.793781 0.114600
0.154547 0.796652 0.116354
0.205023 0.799522 0.118131
0.257915 0.802392 0.119930
0.313224 0.805261 0.121752
0.370947 0.808129 0.123596
0.431085 0.810997 0.125464
0.493635 0.813863 0.127354
0.556634 0.816729 0.129268
0.617227 0.819594 0.131205
0.675391 0.822458 0.133166
0.731127 0.825321 0.135150
0.784436 0.828182 0.137157
0.835319 0.831043 0.139189
0.883777 0.833902 0.141244
0.929811 0.836760 0.143323
0.973423 0.839617 0.145426
0.117816 0.850015 0.120590
0.166429 0.852758 0.122421
0.217459 0.855499 0.124274
0.270903 0.858240 0.126149
0.326761 0.860979 0.128049
0.385031 0.863717 0.129971
0.445713 0.866454 0.131916
0.508759 0.869190 0.133885
0.571177 0.871924 0.135878
0.631167 0.874656 0.137894
0.688731 0.877388 0.139934
0.743869 0.880117 0.141998
0.796582 0.882845 0.144086
0.846873 0.885572 0.146198
0.894741 0.888296 0.148335
0.940188 0.891019 0.150496
0.983216 0.893740 0.152681
0.129196 0.903299 0.126838
0.178362 0.905911 0.128746
0.229941 0.908521 0.130676
0.283933 0.911129 0.132630
0.340335 0.913736 0.134608
0.399147 0.916342 0.136609
0.460367 0.918945 0.138634
0.523660 0.921547 0.140683
0.585477 0.924147 0.142755
0.644870 0.926744 0.144852
0.701838 0.929340 0.146973
0.756383 0.931934 0.149119
0.808507 0.934526 0.151288
0.858210 0.937115 0.153483
0.905493 0.939703 0.155702
0.950358 0.942288 0.157946
0.992806 0.944871 0.160215
0.140630 0.953620 0.133348
0.190343 0.956098 0.135334
0.242467 0.958574 0.137344
0.297001 0.961048 0.139377
0.353942 0.963520 0.141435
0.413291 0.965990 0.143516
0.475046 0.968457 0.145622
0.538318 0.970923 0.147751
0.599539 0.973385 0.149906
0.658339 0.975846 0.152084
0.714716 0.978304 0.154288
0.768674 0.980759 0.156516
0.820212 0.983212 0.158769
0.869332 0.985662 0.161047
0.916035 0.988109 0.163351
0.960323 0.990554 0.165679
1.000000 0.992996 0.168033
0.000000 0.010123 0.100906
0.007261 0.012192 0.101817
0.050147 0.014272 0.102748
0.095485 0.016364 0.103699
0.143272 0.018468 0.104670
0.193508 0.020583 0.105661
0.246192 0.022710 0.106672
0.301323 0.024849 0.107703
0.358899 0.027000 0.108754
0.418920 0.029163 0.109825
0.481384 0.031338 0.110917
0.545057 0.033525 0.112029
0.606476 0.035724 0.113161
0.665435 0.037935 0.114314
0.721936 0.040159 0.115487
0.775979 0.042395 0.116681
0.827566 0.044643 0.117895
0.000000 0.057130 0.104051
0.018201 0.059351 0.105029
0.061705 0.061584 0.106027
0.107657 0.063829 0.107045
0.156056 0.066086 0.108083
0.206902 0.068356 0.109142
0.260193 0.070637 0.110220
0.315929 0.072932 0.111319
0.374107 0.075238 0.112439
0.434726 0.077557 0.113578
0.497787 0.079888 0.114738
0.561003 0.082232 0.115919
0.621764 0.084589 0.117120
0.680068 0.086958 0.118342
0.735917 0.089340 0.119585
0.789310 0.091735 0.120849
0.840250 0.094142 0.122134
0.000000 0.107123 0.107421
0.029233 0.109499 0.108466
0.073349 0.111887 0.109532
0.119912 0.114288 0.110618
0.168918 0.116702 0.111724
0.220369 0.119128 0.112851
0.274262 0.121567 0.113998
0.330597 0.124019 0.115166
0.389372 0.126484 0.116354
0.450585 0.128961 0.117563
0.514118 0.131452 0.118793
0.576682 0.133955 0.120043
0.636791 0.136472 0.121314
0.694444 0.139002 0.122607
0.749645 0.141544 0.123920
0.802393 0.144101 0.125254
0.852691 0.146670 0.126610
0.000000 0.160116 0.111019
0.040354 0.162649 0.112132
0.085078 0.165195 0.113266
0.132245 0.167755 0.114421
0.181855 0.170327 0.115596
0.233905 0.172913 0.116792
0.288395 0.175511 0.118008
0.345324 0.178124 0.119245
0.404691 0.180749 0.120503
0.466494 0.183388 0.121782
0.530184 0.186040 0.123082
0.592097 0.188706 0.124403
0.651558 0.191385 0.125745
0.708566 0.194078 0.127109
0.763124 0.196784 0.128494
0.815232 0.199505 0.129900
0.864892 0.202239 0.131327
0.008676 0.216119 0.114846
0.051561 0.218813 0.116029
0.096888 0.221519 0.117232
0.144655 0.224240 0.118456
0.194862 0.226974 0.119701
0.247507 0.229721 0.120967
0.302590 0.232483 0.122253
0.360108 0.235258 0.123561
0.420062 0.238046 0.124889
0.482449 0.240849 0.126239
0.545984 0.243666 0.127610
0.607252 0.246496 0.129003
0.666069 0.249341 0.130417
0.722437 0.252200 0.131852
0.776357 0.255072 0.133309
0.827830 0.257959 0.134788
0.876857 0.260860 0.136289
0.019365 0.275146 0.118907
0.062850 0.278002 0.120159
0.108775 0.280872 0.121433
0.157137 0.283756 0.122727
0.207937 0.286654 0.124042
0.261172 0.289566 0.125378
0.316842 0.292493 0.126736
0.374945 0.295433 0.128115
0.435481 0.298388 0.129515
0.498448 0.301357 0.130937
0.561522 0.304341 0.132380
0.622148 0.307339 0.133845
0.680327 0.310351 0.135332
0.736059 0.313378 0.136841
0.789346 0.316420 0.138371
0.840189 0.319476 0.139923
0.888589 0.322547 0.141498
0.030137 0.337209 0.123203
0.074218 0.340230 0.124526
0.120736 0.343266 0.125870
0.169689 0.346316 0.127236
0.221076 0.349381 0.128622
0.274896 0.352460 0.130030
0.331149 0.355554 0.131460
0.389832 0.358663 0.132911
0.450944 0.361787 0.134384
0.514363 0.364925 0.135879
0.576800 0.368078 0.137395
0.636790 0.371246 0.138934
0.694336 0.374429 0.140494
0.749438 0.377627 0.142077
0.802096 0.380840 0.143682
0.852314 0.384068 0.145309
0.900090 0.387312 0.146959
0.040991 0.402319 0.127738
0.085663 0.405509 0.129132
0.132768 0.408713 0.130548
0.182307 0.411932 0.131986
0.234276 0.415166 0.133445
0.288677 0.418415 0.134926
0.345507 0.421679 0.136428
0.404765 0.424959 0.137953
0.466450 0.428254 0.139499
0.530019 0.431564 0.141068
0.591822 0.434889 0.142659
0.651181 0.438230 0.144272
0.708098 0.441586 0.145907
0.762574 0.444958 0.147565
0.814610 0.448345 0.149245
0.864206 0.451748 0.150948
0.911365 0.455166 0.152674
0.051922 0.470490 0.132515
0.097180 0.473850 0.133981
0.144868 0.477225 0.135470
0.194987 0.480615 0.136981
0.247535 0.484021 0.138513
0.302511 0.487443 0.140068
0.359913 0.490880 0.141644
0.419741 0.494333 0.143243
0.481994 0.497802 0.144864
0.545416 0.501285 0.146508
0.606591 0.504773 0.148174
0.665324 0.508262 0.149862
0.721617 0.511752 0.151574
0.775472 0.515244 0.153308
0.826890 0.518737 0.155065
0.875870 0.522231 0.156845
0.922416 0.525726 0.158648
0.062928 0.540728 0.137536
0.108766 0.544085 0.139077
0.157033 0.547445 0.140639
0.207728 0.550805 0.142224
0.260848 0.554167 0.143831
0.316395 0.557530 0.145460
0.374365 0.560894 0.147112
0.434758 0.564259 0.148786
0.497573 0.567626 0.150483
0.560559 0.570993 0.152202
0.621110 0.574361 0.153945
0.679222 0.577730 0.155710
0.734896 0.581100 0.157499
0.788135 0.584471 0.159310
0.838939 0.587842 0.161145
0.887309 0.591214 0.163004
0.933246 0.594587 0.164885
0.074005 0.608600 0.142806
0.120419 0.611840 0.144421
0.169259 0.615081 0.146059
0.220525 0.618323 0.147719
0.274214 0.621565 0.149401
0.330325 0.624808 0.151106
0.388858 0.628052 0.152834
0.449812 0.631297 0.154585
0.513083 0.634542 0.156359
0.575451 0.637787 0.158156
0.635382 0.641033 0.159976
0.692877 0.644280 0.161819
0.747938 0.647526 0.163686
0.800566 0.650773 0.165576
0.850761 0.654021 0.167490
0.898525 0.657268 0.169428
0.943859 0.660515 0.171389
0.085150 0.673570 0.148329
0.132135 0.676690 0.150019
0.181544 0.679810 0.151733
0.233375 0.682930 0.153469
0.287627 0.686051 0.155228
0.344300 0.689171 0.157010
0.403391 0.692292 0.158816
0.464900 0.695414 0.160644
0.528342 0.698535 0.162496
0.590093 0.701656 0.164371
0.649410 0.704777 0.166270
0.706294 0.707898 0.168193
0.760746 0.711019 0.170139
0.812767 0.714140 0.172110
0.862359 0.717260 0.174104
0.909521 0.720380 0.176122
0.954257 0.723500 0.178165
0.096360 0.735626 0.154107
0.143911 0.738623 0.155874
0.193884 0.741619 0.157665
0.246276 0.744615 0.159479
0.301087 0.747611 0.161316
0.358315 0.750607 0.163176
0.417959 0.753603 0.165060
0.480019 0.756598 0.166968
0.543352 0.759592 0.168899
0.604491 0.762587 0.170854
0.663198 0.765580 0.172833
0.719475 0.768573 0.174836
0.773323 0.771566 0.176863
0.824743 0.774558 0.178915
0.873735 0.777549 0.180991
0.920302 0.780539 0.183091
0.964443 0.783528 0.185216
0.107631 0.794756 0.160145
0.155745 0.797627 0.161990
0.206276 0.800497 0.163859
0.259224 0.803366 0.165752
0.314588 0.806235 0.167668
0.372367 0.809103 0.169608
0.432560 0.811970 0.171572
0.495165 0.814837 0.173559
0.558114 0.817702 0.175571
0.618646 0.820567 0.177607
0.676749 0.823430 0.179668
0.732424 0.826293 0.181753
0.785672 0.829154 0.183862
0.836495 0.832014 0.185996
0.884893 0.834873 0.188155
0.930868 0.837731 0.190339
0.974421 0.840587 0.192548
0.118962 0.850947 0.166447
0.167632 0.853689 0.168371
0.218717 0.856430 0.170320
0.272217 0.859170 0.172292
0.328130 0.861909 0.174289
0.386455 0.864647 0.176310
0.447191 0.867383 0.178355
0.510274 0.870118 0.180424
0.572631 0.872852 0.182518
0.632561 0.875584 0.184636
0.690064 0.878315 0.186779
0.745142 0.881044 0.188947
0.797796 0.883771 0.191141
0.848027 0.886497 0.193359
0.895836 0.889221 0.195602
0.941224 0.891944 0.197871
0.984193 0.894664 0.200165
0.130348 0.904186 0.173016
0.179570 0.906797 0.175022
0.231204 0.909407 0.177051
0.285250 0.912015 0.179105
0.341707 0.914621 0.181183
0.400573 0.917226 0.183286
0.461848 0.919829 0.185414
0.525151 0.922430 0.187566
0.586908 0.925029 0.189743
0.646240 0.927626 0.191945
0.703148 0.930221 0.194173
0.757634 0.932815 0.196425
0.809698 0.935406 0.198703
0.859342 0.937994 0.201007
0.906567 0.940581 0.203336
0.951373 0.943165 0.205692
0.993763 0.945747 0.208073
0.141787 0.954462 0.179859
0.191556 0.956939 0.181946
0.243734 0.959415 0.184058
0.298322 0.961888 0.186194
0.355318 0.964359 0.188356
0.414721 0.966828 0.190542
0.476529 0.969295 0.192753
0.539784 0.971759 0.194990
0.600946 0.974221 0.197252
0.659685 0.976681 0.199539
0.716004 0.979138 0.201852
0.769902 0.981592 0.204191
0.821381 0.984044 0.206555
0.870443 0.986493 0.208946
0.917088 0.988940 0.211363
0.961317 0.991383 0.213806
1.000000 0.993824 0.216275
0.000000 0.010824 0.145493
0.008361 0.012897 0.146456
0.051310 0.014981 0.147439
0.096710 0.017077 0.148443
0.144559 0.019185 0.149468
0.194857 0.021304 0.150514
0.247603 0.023435 0.151581
0.302795 0.025578 0.152668
0.360432 0.027733 0.153777
0.420513 0.029900 0.154907
0.483037 0.032079 0.156058
0.546679 0.034270 0.157230
0.608031 0.036474 0.158423
0.666924 0.038689 0.159638
0.723359 0.040917 0.160875
0.777336 0.043157 0.162133
0.828858 0.045409 0.163412
0.000000 0.057883 0.148814
0.019310 0.060108 0.149846
0.062876 0.062345 0.150900
0.108890 0.064594 0.151974
0.157351 0.066855 0.153069
0.208259 0.069129 0.154186
0.261611 0.071415 0.155323
0.317407 0.073713 0.156482
0.375645 0.076024 0.157662
0.436325 0.078347 0.158863
0.499445 0.080683 0.160086
0.562598 0.083031 0.161330
0.623293 0.085392 0.162596
0.681531 0.087766 0.163883
0.737314 0.090152 0.165193
0.790642 0.092551 0.166524
0.841517 0.094963 0.167876
0.000000 0.107929 0.152370
0.030352 0.110309 0.153473
0.074530 0.112701 0.154597
0.121153 0.115106 0.155743
0.170221 0.117524 0.156909
0.221733 0.119955 0.158097
0.275686 0.122398 0.159306
0.332081 0.124855 0.160536
0.390916 0.127324 0.161789
0.452189 0.129806 0.163062
0.515752 0.132301 0.164358
0.578250 0.134808 0.165675
0.638293 0.137330 0.167014
0.695881 0.139864 0.168374
0.751017 0.142411 0.169757
0.803701 0.144972 0.171162
0.853933 0.147546 0.172589
0.000000 0.160975 0.156165
0.041482 0.163512 0.157339
0.086267 0.166063 0.158534
0.133495 0.168627 0.159751
0.183165 0.171204 0.160990
0.235275 0.173794 0.162250
0.289826 0.176397 0.163531
0.346814 0.179014 0.164835
0.406240 0.181644 0.166160
0.468103 0.184287 0.167506
0.531791 0.186944 0.168875
0.593639 0.189614 0.170266
0.653034 0.192298 0.171679
0.709978 0.194996 0.173114
0.764471 0.197707 0.174572
0.816515 0.200432 0.176051
0.866111 0.203170 0.177553
0.009751 0.217032 0.160200
0.052697 0.219730 0.161446
0.098084 0.222442 0.162714
0.145912 0.225167 0.164003
0.196179 0.227905 0.165314
0.248884 0.230658 0.166647
0.304026 0.233423 0.168002
0.361604 0.236203 0.169379
0.421616 0.238997 0.170778
0.484062 0.241804 0.172199
0.547565 0.244625 0.173642
0.608767 0.247461 0.175108
0.667519 0.250310 0.176596
0.723823 0.253174 0.178106
0.777679 0.256051 0.179639
0.829088 0.258943 0.181194
0.878052 0.261849 0.182773
0.020448 0.276115 0.164478
0.063994 0.278975 0.165797
0.109979 0.281850 0.167138
0.158401 0.284739 0.168501
0.209260 0.287642 0.169886
0.262555 0.290559 0.171293
0.318284 0.293490 0.172722
0.376446 0.296435 0.174173
0.437040 0.299395 0.175647
0.500065 0.302369 0.177143
0.563076 0.305357 0.178661
0.623638 0.308360 0.180202
0.681753 0.311378 0.181766
0.737421 0.314410 0.183353
0.790644 0.317456 0.184962
0.841424 0.320518 0.186595
0.889760 0.323594 0.188250
0.031229 0.338233 0.169003
0.075370 0.341260 0.170395
0.121947 0.344300 0.171810
0.170960 0.347355 0.173248
0.222406 0.350425 0.174707
0.276285 0.353509 0.176189
0.332596 0.356608 0.177693
0.391337 0.359722 0.179220
0.452508 0.362851 0.180769
0.515955 0.365994 0.182341
0.578328 0.369152 0.183936
0.638254 0.372325 0.185554
0.695736 0.375513 0.187195
0.750775 0.378717 0.188858
0.803370 0.381935 0.190545
0.853525 0.385168 0.192256
0.901239 0.388417 0.193989
0.042091 0.403401 0.173776
0.086822 0.406595 0.175244
0.133987 0.409804 0.176734
0.183584 0.413028 0.178246
0.235612 0.416268 0.179781
0.290071 0.419522 0.181339
0.346959 0.422791 0.182919
0.406275 0.426076 0.184522
0.468017 0.429376 0.186149
0.531585 0.432691 0.187798
0.593324 0.436022 0.189470
0.652620 0.439368 0.191165
0.709474 0.442729 0.192884
0.763887 0.446106 0.194626
0.815860 0.449499 0.196392
0.865394 0.452907 0.198181
0.912491 0.456331 0.199994
0.053030 0.471629 0.178802
0.098346 0.474994 0.180346
0.146094 0.478374 0.181912
0.196271 0.481770 0.183500
0.248877 0.485182 0.185112
0.303910 0.488609 0.186746
0.361370 0.492051 0.188404
0.421255 0.495509 0.190084
0.483565 0.498983 0.191788
0.546957 0.502470 0.193516
0.608068 0.505958 0.195266
0.666738 0.509447 0.197041
0.722969 0.512938 0.198839
0.776761 0.516430 0.200660
0.828116 0.519923 0.202506
0.877035 0.523418 0.204375
0.923519 0.526913 0.206269
0.064043 0.541868 0.184084
0.109940 0.545226 0.185704
0.158265 0.548586 0.187347
0.209017 0.551947 0.189013
0.262195 0.555309 0.190702
0.317799 0.558672 0.192415
0.375826 0.562037 0.194150
0.436276 0.565403 0.195910
0.499148 0.568769 0.197692
0.562074 0.572137 0.199499
0.622562 0.575505 0.201329
0.680611 0.578875 0.203184
0.736224 0.582245 0.205062
0.789400 0.585616 0.206964
0.840143 0.588987 0.208891
0.888451 0.592359 0.210842
0.934327 0.595732 0.212817
0.075127 0.609700 0.189625
0.121599 0.612940 0.191323
0.170497 0.616182 0.193044
0.221820 0.619424 0.194788
0.275566 0.622666 0.196556
0.331734 0.625910 0.198347
0.390324 0.629154 0.200163
0.451334 0.632399 0.202002
0.514635 0.635644 0.203865
0.576940 0.638890 0.205752
0.636809 0.642136 0.207663
0.694243 0.645382 0.209598
0.749242 0.648629 0.211558
0.801808 0.651876 0.213542
0.851942 0.655123 0.215551
0.899645 0.658371 0.217584
0.944918 0.661618 0.219643
0.086278 0.674630 0.195429
0.133321 0.677749 0.197205
0.182787 0.680869 0.199006
0.234675 0.683990 0.200829
0.288984 0.687110 0.202677
0.345713 0.690231 0.204549
0.404860 0.693352 0.206445
0.466425 0.696474 0.208365
0.529869 0.699595 0.210309
0.591558 0.702716 0.212277
0.650813 0.705837 0.214271
0.707635 0.708958 0.216288
0.762026 0.712079 0.218331
0.813986 0.715200 0.220398
0.863517 0.718320 0.222491
0.910619 0.721440 0.224608
0.955295 0.724559 0.226751
0.097495 0.736644 0.201499
0.145103 0.739640 0.203356
0.195133 0.742637 0.205236
0.247581 0.745633 0.207141
0.302448 0.748629 0.209070
0.359732 0.751624 0.211023
0.419432 0.754620 0.213000
0.481547 0.757615 0.215002
0.544853 0.760609 0.217029
0.605931 0.763603 0.219081
0.664577 0.766597 0.221157
0.720793 0.769590 0.223258
0.774580 0.772582 0.225385
0.825939 0.775573 0.227537
0.874871 0.778564 0.229714
0.921378 0.781554 0.231917
0.965460 0.784543 0.234145
0.108773 0.795731 0.207840
0.156942 0.798601 0.209778
0.207530 0.801471 0.211740
0.260534 0.804341 0.213726
0.315954 0.807209 0.215737
0.373788 0.810077 0.217773
0.434036 0.812944 0.219834
0.496696 0.815810 0.221919
0.559590 0.818675 0.224030
0.620061 0.821539 0.226166
0.678103 0.824403 0.228327
0.733718 0.827265 0.230513
0.786906 0.830125 0.232725
0.837669 0.832985 0.234963
0.886008 0.835844 0.237226
0.931923 0.838701 0.239515
0.975417 0.841556 0.241831
0.120109 0.851878 0.214456
0.168835 0.854620 0.216476
0.219975 0.857361 0.218520
0.273531 0.860100 0.220590
0.329499 0.862839 0.222685
0.387879 0.865576 0.224804
0.448669 0.868312 0.226949
0.511787 0.871047 0.229120
0.574083 0.873780 0.231315
0.633952 0.876512 0.233537
0.691395 0.879242 0.235784
0.746414 0.881970 0.238057
0.799008 0.884697 0.240355
0.849179 0.887423 0.242680
0.896929 0.890146 0.245031
0.942258 0.892868 0.247409
0.985168 0.895588 0.249813
0.131501 0.905073 0.221350
0.180778 0.907684 0.223453
0.232467 0.910293 0.225582
0.286568 0.912900 0.227737
0.343080 0.915506 0.229916
0.402000 0.918110 0.232121
0.463329 0.920712 0.234352
0.526639 0.923313 0.236608
0.588336 0.925911 0.238890
0.647608 0.928508 0.241199
0.704456 0.931102 0.243533
0.758883 0.933695 0.245894
0.810888 0.936285 0.248281
0.860472 0.938873 0.250694
0.907638 0.941459 0.253135
0.952386 0.944042 0.255602
0.994718 0.946624 0.258095
0.142945 0.955303 0.228527
0.192768 0.957780 0.230716
0.245001 0.960255 0.232930
0.299644 0.962728 0.235170
0.356694 0.965198 0.237436
0.416150 0.967666 0.239728
0.478013 0.970132 0.242046
0.541248 0.972596 0.244390
0.602350 0.975057 0.246760
0.661030 0.977515 0.249156
0.717289 0.979972 0.251580
0.771128 0.982425 0.254030
0.822549 0.984876 0.256506
0.871552 0.987324 0.259010
0.918139 0.989770 0.261541
0.962310 0.992213 0.264099
1.000000 0.994652 0.266684
0.000000 0.011527 0.192205
0.009462 0.013603 0.193219
0.052473 0.015692 0.194255
0.097935 0.017791 0.195313
0.145847 0.019903 0.196392
0.196207 0.022026 0.197493
0.249014 0.024162 0.198616
0.304267 0.026309 0.199761
0.361965 0.028468 0.200928
0.422107 0.030639 0.202117
0.484692 0.032822 0.203328
0.548298 0.035017 0.204561
0.609584 0.037225 0.205817
0.668410 0.039444 0.207095
0.724779 0.041676 0.208395
0.778691 0.043920 0.209718
0.830147 0.046177 0.211063
0.000000 0.058637 0.195703
0.020421 0.060866 0.196790
